!!!OTL: ES WOLLT EIN JAEGER JAGEN
!!!ARE: Europa, Mitteleuropa, Deutschland
!!!SCT: E1435
!!!YEM: Copyright 1995, estate of Helmut Schaffrath.
**kern
*ICvox
*Ivox
*M4/4
*k[b-]
*F:
{4f
=1
4a
4b-
4cc
4dd
=2
2cc
4.a
8b-}
=3
{4cc
2dd
4cc
=4
2b-
2a
=5
4r}
{4cc
4cc
4cc
=6
4cc
4dd
2b-
=7
2cc}
{2cc
=8
2dd
4cc
[4b-
=9
4b-]
4a
2g
=10
1f
=11
4r}
{4cc
4cc
4cc
=12
4cc
4dd
2b-
=13
2cc}
{2cc
=14
2dd
4cc
[4b-
=15
4b-]
4a
2g
=16
2.f}
==
!!!AGN: Staende -, Jaeger - Lied
!!!ONB: ESAC (Essen Associative Code) Database: ERK3
!!!AMT: simple quadruple
!!!AIN: vox
!!!EED: Helmut Schaffrath
!!!EEV: 1.0
*-
